X:2238
T:Shannon Rea
T:Three times I kissed her ruby lips 
C:John Joughin, The Garey, Lezayre
C:Traditional
O:Isle of Man
Z:Clague collection
B:Kiaull Vannin #238 
L:1/4
M:4/4 
Q:60 
K:D 
A|B>c d e|d B F>G|B>c B A/c/|B3 d/B/|A>B F A|B/A/ B B, D/E/|F/E/ F D D|D3|| 

